packages/ui/assets/svg/avalanche.svg

<svg class="icon-size" width="35" height="35" viewBox="0 0 35 35" fill="none" xmlns="http://www.w3.org/2000/svg">
<path d="M28.2934 6.004H6.6833V25.645H28.2934V6.004Z" fill="white"/>
<path fill-rule="evenodd" clip-rule="evenodd" d="M34.9884 17.5C34.9884 27.1522 27.1587 34.9767 17.5 34.9767C7.84144 34.9767 0.0116425 27.1522 0.0116425 17.5C0.0116425 7.84788 7.84144 0.0232849 17.5 0.0232849C27.1587 0.0232849 34.9884 7.84788 34.9884 17.5ZM12.5443 24.4549H9.1503C8.43712 24.4549 8.08484 24.4549 7.87004 24.3176C7.63803 24.1672 7.49627 23.9182 7.47908 23.6434C7.46618 23.3902 7.64234 23.081 7.99463 22.4627L16.3748 7.70129C16.7314 7.07446 16.9118 6.76104 17.1395 6.64513C17.3844 6.52063 17.6766 6.52063 17.9215 6.64513C18.1492 6.76104 18.3296 7.07446 18.6862 7.70129L20.409 10.7066L20.4178 10.722C20.8029 11.3944 20.9982 11.7355 21.0835 12.0934C21.178 12.4841 21.178 12.8962 21.0835 13.2869C20.9976 13.6476 20.8042 13.9911 20.4133 14.6737L16.0114 22.4499L16 22.4698C15.6123 23.1478 15.4158 23.4914 15.1435 23.7507C14.8471 24.0341 14.4905 24.2401 14.0995 24.3562C13.7429 24.4549 13.3434 24.4549 12.5443 24.4549ZM21.1153 24.4549H25.9785C26.6959 24.4549 27.0569 24.4549 27.2718 24.3134C27.5038 24.163 27.6498 23.9096 27.6628 23.635C27.6752 23.39 27.5028 23.0928 27.1652 22.5105C27.1535 22.4907 27.1419 22.4705 27.13 22.45L24.694 18.2854L24.6663 18.2385C24.324 17.6601 24.1512 17.3679 23.9292 17.255C23.6845 17.1305 23.3964 17.1305 23.1517 17.255C22.9283 17.3709 22.7478 17.6758 22.3912 18.2897L19.9639 22.4543L19.9556 22.4686C19.6002 23.0816 19.4227 23.3879 19.4355 23.6392C19.4526 23.914 19.5944 24.1672 19.8264 24.3176C20.0369 24.4549 20.3978 24.4549 21.1153 24.4549Z" fill="#E84142"/>
</svg>

<svg class="icon-size" width="35" height="35" viewBox="0 0 35 35" fill="none" xmlns="http://www.w3.org/2000/svg"><path d="M28.293 6.004H6.683v19.641h21.61V6.004Z" fill="#fff"/><path fill-rule="evenodd" clip-rule="evenodd" d="M34.988 17.5c0 9.652-7.83 17.477-17.488 17.477C7.841 34.977.012 27.152.012 17.5.012 7.848 7.842.023 17.5.023c9.659 0 17.488 7.825 17.488 17.477Zm-22.444 6.955H9.15c-.713 0-1.065 0-1.28-.137a.862.862 0 0 1-.39-.675c-.014-.253.162-.562.515-1.18L16.375 7.7c.356-.627.537-.94.765-1.056a.865.865 0 0 1 .782 0c.227.116.408.43.764 1.056l1.723 3.006.009.015c.385.672.58 1.014.666 1.371.094.391.094.803 0 1.194-.086.36-.28.704-.67 1.387L16.01 22.45l-.011.02c-.388.678-.584 1.021-.857 1.28-.296.284-.652.49-1.043.606-.357.099-.757.099-1.556.099Zm8.571 0h4.864c.717 0 1.078 0 1.293-.142a.859.859 0 0 0 .39-.678c.013-.245-.16-.542-.497-1.125l-.035-.06-2.436-4.165-.028-.047c-.342-.578-.515-.87-.737-.983a.856.856 0 0 0-.777 0c-.224.116-.404.42-.76 1.035l-2.428 4.164-.008.015c-.356.613-.533.919-.52 1.17a.87.87 0 0 0 .39.679c.21.137.572.137 1.29.137Z" fill="#E84142"/></svg>
